!!!OTL: 173e. Goldvoeglein giebt Bescheid.
!!!ARE: Europa, Mitteleuropa, Deutschland, Schlesien
!!!SCT: E0173
!!!TXL: @@DE
!!!YEM: Copyright 1995, estate of Helmut Schaffrath.
**kern	**text
*ICvox	*
*M3/4	*
*k[f#]	*
*G:	*
{8d	.
=1	=1
8g	Näch-
8d	-ten
4g	als
4g	ich
=2	=2
8f#	ſchla-
8g	-fen
4.a}	gieng,
{8a	ge-
=3	=3
8b/	-dacht
8a	ich
4g	an
4a	die
=4	=4
8ccL	Lie-
8bJ	.
4a	-be
8r}	.
{8cc	ich
=5	=5
8b	gieng
8dd	in
4.a	mein
8cc	Schlaf-
=6	=6
8b	-käm-
8dd	-mer-
4.g}	-lein
{8a	und
=7	=7
8b/	ſah
8g	wol
4dd	im-
8bL	-mer
8gJ	dort
=8	=8
4a	'nü-
4g	-ber.
8r}	.
==	==
!!!AGN: erzaehlendes Volks - Lied, Sage, Tier - Maerchen, Liebe
!!!ONB: ESAC (Essen Associative Code) Database: ERK1
!!!AMT: simple triple
!!!AIN: vox
!!!EED: Helmut Schaffrath
!!!EEV: 1.0
!!!GTL: Thiersage und Pflanzenmaerchen
!!!URL-scan: https://rosdok.uni-rostock.de/mcrviewer/recordIdentifier/rosdok_ppn745146120/iview2/phys_0598.iview2?x=-128.7727644188933&y=1833.5211696238257&scale=0.5870222003877484&rotation=0&layout=singlePageLayout
!!!ENC: Anna Maria Matuszewska
!!!EEV: 2024/04/12
*-	*-
